assets/1. F-P/Outbox tray/Color/Outbox.Tray-color.svg

<svg width="100%" height="100%" viewBox="0 0 32 32" fill="none" xmlns="http://www.w3.org/2000/svg">
<rect x="4.86639" y="12.4233" width="22.2558" height="16.8906" rx="2.5" fill="url(#paint0_linear_18_21882)"/>
<rect x="4.86639" y="12.4233" width="22.2558" height="16.8906" rx="2.5" fill="url(#paint1_linear_18_21882)"/>
<rect x="4.86639" y="12.4233" width="22.2558" height="16.8906" rx="2.5" fill="url(#paint2_linear_18_21882)"/>
<rect x="4.86639" y="12.4233" width="22.2558" height="16.8906" rx="2.5" fill="url(#paint3_linear_18_21882)"/>
<g filter="url(#filter0_f_18_21882)">
<path d="M7.53865 8.85291C6.18548 8.85291 5.08856 9.94984 5.08856 11.303V22.9562C5.08856 24.3093 6.18548 25.4063 7.53865 25.4063H12.1057C12.7348 26.7872 14.2389 27.7594 15.9943 27.7594C17.7497 27.7594 19.2537 26.7872 19.8828 25.4063H24.4499C25.8031 25.4063 26.9 24.3093 26.9 22.9562V11.303C26.9 9.94984 25.8031 8.85291 24.4499 8.85291H7.53865Z" fill="#B5A0CF"/>
</g>
<path d="M19.9742 29.3138H12.0258V24.8925H19.9742V29.3138Z" fill="url(#paint4_linear_18_21882)"/>
<path d="M19.9742 29.3138H12.0258V24.8925H19.9742V29.3138Z" fill="url(#paint5_linear_18_21882)"/>
<g filter="url(#filter1_ii_18_21882)">
<path d="M7.36639 8.31653C5.98566 8.31653 4.86639 9.43581 4.86639 10.8165V22.7071C4.86639 24.0878 5.98566 25.2071 7.36639 25.2071H12.0265C12.6684 26.6162 14.2031 27.6082 15.9943 27.6082C17.7855 27.6082 19.3201 26.6162 19.962 25.2071H24.6222C26.0029 25.2071 27.1222 24.0878 27.1222 22.7071V10.8165C27.1222 9.43581 26.0029 8.31653 24.6222 8.31653H7.36639Z" fill="url(#paint6_linear_18_21882)"/>
</g>
<g filter="url(#filter2_f_18_21882)">
<path d="M24.4396 12.5132C24.4396 11.5215 23.6561 10.7177 22.6896 10.7177H9.29901C8.33251 10.7177 7.54901 11.5215 7.54901 12.5132V20.4076C7.54901 21.3992 8.33251 22.2031 9.29901 22.2031H13.1823C13.4033 22.2031 13.5823 22.3868 13.5823 22.6135V22.6333C13.5823 23.6249 14.3658 24.4288 15.3323 24.4288H16.6014C17.5679 24.4288 18.3514 23.6249 18.3514 22.6333V22.6135C18.3514 22.3868 18.5305 22.2031 18.7514 22.2031H22.6896C23.6561 22.2031 24.4396 21.3992 24.4396 20.4076V12.5132Z" fill="#A4A3C4"/>
<path d="M24.4396 12.5132C24.4396 11.5215 23.6561 10.7177 22.6896 10.7177H9.29901C8.33251 10.7177 7.54901 11.5215 7.54901 12.5132V20.4076C7.54901 21.3992 8.33251 22.2031 9.29901 22.2031H13.1823C13.4033 22.2031 13.5823 22.3868 13.5823 22.6135V22.6333C13.5823 23.6249 14.3658 24.4288 15.3323 24.4288H16.6014C17.5679 24.4288 18.3514 23.6249 18.3514 22.6333V22.6135C18.3514 22.3868 18.5305 22.2031 18.7514 22.2031H22.6896C23.6561 22.2031 24.4396 21.3992 24.4396 20.4076V12.5132Z" fill="url(#paint7_linear_18_21882)"/>
<path d="M24.4396 12.5132C24.4396 11.5215 23.6561 10.7177 22.6896 10.7177H9.29901C8.33251 10.7177 7.54901 11.5215 7.54901 12.5132V20.4076C7.54901 21.3992 8.33251 22.2031 9.29901 22.2031H13.1823C13.4033 22.2031 13.5823 22.3868 13.5823 22.6135V22.6333C13.5823 23.6249 14.3658 24.4288 15.3323 24.4288H16.6014C17.5679 24.4288 18.3514 23.6249 18.3514 22.6333V22.6135C18.3514 22.3868 18.5305 22.2031 18.7514 22.2031H22.6896C23.6561 22.2031 24.4396 21.3992 24.4396 20.4076V12.5132Z" fill="url(#paint8_linear_18_21882)"/>
<path d="M22.6896 10.6427H9.29901C8.28929 10.6427 7.47401 11.4819 7.47401 12.5132V20.4076C7.47401 21.4388 8.28929 22.2781 9.29901 22.2781H13.1823C13.36 22.2781 13.5073 22.4264 13.5073 22.6135V22.6333C13.5073 23.6645 14.3226 24.5038 15.3323 24.5038H16.6014C17.6112 24.5038 18.4264 23.6645 18.4264 22.6333V22.6135C18.4264 22.4264 18.5738 22.2781 18.7514 22.2781H22.6896C23.6993 22.2781 24.5146 21.4388 24.5146 20.4076V12.5132C24.5146 11.4819 23.6993 10.6427 22.6896 10.6427Z" stroke="url(#paint9_linear_18_21882)" stroke-width="0.15"/>
<path d="M22.6896 10.6427H9.29901C8.28929 10.6427 7.47401 11.4819 7.47401 12.5132V20.4076C7.47401 21.4388 8.28929 22.2781 9.29901 22.2781H13.1823C13.36 22.2781 13.5073 22.4264 13.5073 22.6135V22.6333C13.5073 23.6645 14.3226 24.5038 15.3323 24.5038H16.6014C17.6112 24.5038 18.4264 23.6645 18.4264 22.6333V22.6135C18.4264 22.4264 18.5738 22.2781 18.7514 22.2781H22.6896C23.6993 22.2781 24.5146 21.4388 24.5146 20.4076V12.5132C24.5146 11.4819 23.6993 10.6427 22.6896 10.6427Z" stroke="url(#paint10_linear_18_21882)" stroke-width="0.15"/>
</g>
<g filter="url(#filter3_iii_18_21882)">
<path d="M24.4396 12.8154C24.4396 11.8489 23.6561 11.0654 22.6896 11.0654H9.29901C8.33251 11.0654 7.54901 11.8489 7.54901 12.8154V20.5096C7.54901 21.4761 8.33251 22.2596 9.29901 22.2596H13.1823C13.4033 22.2596 13.5823 22.4387 13.5823 22.6596V22.6789C13.5823 23.6454 14.3658 24.4289 15.3323 24.4289H16.6014C17.5679 24.4289 18.3514 23.6454 18.3514 22.6789V22.6596C18.3514 22.4387 18.5305 22.2596 18.7514 22.2596H22.6896C23.6561 22.2596 24.4396 21.4761 24.4396 20.5096V12.8154Z" fill="#2C83D3"/>
</g>
<g filter="url(#filter4_ii_18_21882)">
<path d="M13.8599 16C13.5009 16 13.2099 15.709 13.2099 15.35L13.2099 8.05916L11.9646 8.05916C11.3179 8.05916 10.9744 7.29541 11.4035 6.81154L15.4393 2.2605C15.738 1.92364 16.2641 1.92404 16.5623 2.26134L20.5859 6.81239C21.0139 7.29651 20.6702 8.05916 20.024 8.05916L18.7407 8.05916L18.7407 15.35C18.7407 15.709 18.4497 16 18.0907 16L13.8599 16Z" fill="url(#paint11_linear_18_21882)"/>
</g>
<defs>
<filter id="filter0_f_18_21882" x="4.68856" y="8.45291" width="22.6115" height="19.7065" filterUnits="userSpaceOnUse" color-interpolation-filters="sRGB">
<feFlood flood-opacity="0" result="BackgroundImageFix"/>
<feBlend mode="normal" in="SourceGraphic" in2="BackgroundImageFix" result="shape"/>
<feGaussianBlur stdDeviation="0.2" result="effect1_foregroundBlur_18_21882"/>
</filter>
<filter id="filter1_ii_18_21882" x="4.66639" y="8.31653" width="22.6558" height="19.2916" filterUnits="userSpaceOnUse" color-interpolation-filters="sRGB">
<feFlood flood-opacity="0" result="BackgroundImageFix"/>
<feBlend mode="normal" in="SourceGraphic" in2="BackgroundImageFix" result="shape"/>
<feColorMatrix in="SourceAlpha" type="matrix" values="0 0 0 0 0 0 0 0 0 0 0 0 0 0 0 0 0 0 127 0" result="hardAlpha"/>
<feOffset dx="-0.2"/>
<feGaussianBlur stdDeviation="0.1"/>
<feComposite in2="hardAlpha" operator="arithmetic" k2="-1" k3="1"/>
<feColorMatrix type="matrix" values="0 0 0 0 1 0 0 0 0 0.996078 0 0 0 0 1 0 0 0 1 0"/>
<feBlend mode="normal" in2="shape" result="effect1_innerShadow_18_21882"/>
<feColorMatrix in="SourceAlpha" type="matrix" values="0 0 0 0 0 0 0 0 0 0 0 0 0 0 0 0 0 0 127 0" result="hardAlpha"/>
<feOffset dx="0.2"/>
<feGaussianBlur stdDeviation="0.1"/>
<feComposite in2="hardAlpha" operator="arithmetic" k2="-1" k3="1"/>
<feColorMatrix type="matrix" values="0 0 0 0 0.678431 0 0 0 0 0.662745 0 0 0 0 0.709804 0 0 0 1 0"/>
<feBlend mode="normal" in2="effect1_innerShadow_18_21882" result="effect2_innerShadow_18_21882"/>
</filter>
<filter id="filter2_f_18_21882" x="7.29902" y="10.4676" width="17.3906" height="14.2112" filterUnits="userSpaceOnUse" color-interpolation-filters="sRGB">
<feFlood flood-opacity="0" result="BackgroundImageFix"/>
<feBlend mode="normal" in="SourceGraphic" in2="BackgroundImageFix" result="shape"/>
<feGaussianBlur stdDeviation="0.05" result="effect1_foregroundBlur_18_21882"/>
</filter>
<filter id="filter3_iii_18_21882" x="7.29901" y="10.8154" width="17.2906" height="13.6134" filterUnits="userSpaceOnUse" color-interpolation-filters="sRGB">
<feFlood flood-opacity="0" result="BackgroundImageFix"/>
<feBlend mode="normal" in="SourceGraphic" in2="BackgroundImageFix" result="shape"/>
<feColorMatrix in="SourceAlpha" type="matrix" values="0 0 0 0 0 0 0 0 0 0 0 0 0 0 0 0 0 0 127 0" result="hardAlpha"/>
<feOffset dx="-0.25" dy="-0.25"/>
<feGaussianBlur stdDeviation="0.125"/>
<feComposite in2="hardAlpha" operator="arithmetic" k2="-1" k3="1"/>
<feColorMatrix type="matrix" values="0 0 0 0 0.341176 0 0 0 0 0.537255 0 0 0 0 0.745098 0 0 0 1 0"/>
<feBlend mode="normal" in2="shape" result="effect1_innerShadow_18_21882"/>
<feColorMatrix in="SourceAlpha" type="matrix" values="0 0 0 0 0 0 0 0 0 0 0 0 0 0 0 0 0 0 127 0" result="hardAlpha"/>
<feOffset dx="0.15"/>
<feGaussianBlur stdDeviation="0.125"/>
<feComposite in2="hardAlpha" operator="arithmetic" k2="-1" k3="1"/>
<feColorMatrix type="matrix" values="0 0 0 0 0.168627 0 0 0 0 0.439216 0 0 0 0 0.776471 0 0 0 1 0"/>
<feBlend mode="normal" in2="effect1_innerShadow_18_21882" result="effect2_innerShadow_18_21882"/>
<feColorMatrix in="SourceAlpha" type="matrix" values="0 0 0 0 0 0 0 0 0 0 0 0 0 0 0 0 0 0 127 0" result="hardAlpha"/>
<feOffset dx="-0.15"/>
<feGaussianBlur stdDeviation="0.125"/>
<feComposite in2="hardAlpha" operator="arithmetic" k2="-1" k3="1"/>
<feColorMatrix type="matrix" values="0 0 0 0 0.164706 0 0 0 0 0.364706 0 0 0 0 0.694118 0 0 0 1 0"/>
<feBlend mode="normal" in2="effect2_innerShadow_18_21882" result="effect3_innerShadow_18_21882"/>
</filter>
<filter id="filter4_ii_18_21882" x="11.0131" y="1.80806" width="9.96235" height="14.3919" filterUnits="userSpaceOnUse" color-interpolation-filters="sRGB">
<feFlood flood-opacity="0" result="BackgroundImageFix"/>
<feBlend mode="normal" in="SourceGraphic" in2="BackgroundImageFix" result="shape"/>
<feColorMatrix in="SourceAlpha" type="matrix" values="0 0 0 0 0 0 0 0 0 0 0 0 0 0 0 0 0 0 127 0" result="hardAlpha"/>
<feOffset dx="-0.2" dy="0.2"/>
<feGaussianBlur stdDeviation="0.2"/>
<feComposite in2="hardAlpha" operator="arithmetic" k2="-1" k3="1"/>
<feColorMatrix type="matrix" values="0 0 0 0 0.898039 0 0 0 0 0.333333 0 0 0 0 0.54902 0 0 0 1 0"/>
<feBlend mode="normal" in2="shape" result="effect1_innerShadow_18_21882"/>
<feColorMatrix in="SourceAlpha" type="matrix" values="0 0 0 0 0 0 0 0 0 0 0 0 0 0 0 0 0 0 127 0" result="hardAlpha"/>
<feOffset dx="0.2" dy="-0.2"/>
<feGaussianBlur stdDeviation="0.2"/>
<feComposite in2="hardAlpha" operator="arithmetic" k2="-1" k3="1"/>
<feColorMatrix type="matrix" values="0 0 0 0 0.815686 0 0 0 0 0.105882 0 0 0 0 0.341176 0 0 0 1 0"/>
<feBlend mode="normal" in2="effect1_innerShadow_18_21882" result="effect2_innerShadow_18_21882"/>
</filter>
<linearGradient id="paint0_linear_18_21882" x1="5.51847" y1="27.208" x2="25.8557" y2="27.208" gradientUnits="userSpaceOnUse">
<stop stop-color="#BBA4D4"/>
<stop offset="1" stop-color="#BDA7D7"/>
</linearGradient>
<linearGradient id="paint1_linear_18_21882" x1="4.86639" y1="26.7284" x2="8.68417" y2="26.7284" gradientUnits="userSpaceOnUse">
<stop stop-color="#908A99"/>
<stop offset="1" stop-color="#A995C1" stop-opacity="0"/>
</linearGradient>
<linearGradient id="paint2_linear_18_21882" x1="27.1222" y1="26.7284" x2="23.7452" y2="26.7284" gradientUnits="userSpaceOnUse">
<stop stop-color="#DBD5E6"/>
<stop offset="1" stop-color="#CCBEDF" stop-opacity="0"/>
</linearGradient>
<linearGradient id="paint3_linear_18_21882" x1="17.8688" y1="29.3139" x2="17.8688" y2="28.9631" gradientUnits="userSpaceOnUse">
<stop offset="0.242816" stop-color="#AA93C3"/>
<stop offset="1" stop-color="#BEA8D8" stop-opacity="0"/>
</linearGradient>
<linearGradient id="paint4_linear_18_21882" x1="19.5875" y1="25.588" x2="16.9" y2="28.463" gradientUnits="userSpaceOnUse">
<stop offset="0.0819774" stop-color="#D1C7E1"/>
<stop offset="1" stop-color="#967EAF"/>
</linearGradient>
<linearGradient id="paint5_linear_18_21882" x1="12.275" y1="29.7755" x2="13.775" y2="28.4005" gradientUnits="userSpaceOnUse">
<stop offset="0.0575471" stop-color="#A28ABC"/>
<stop offset="1" stop-color="#A28ABC" stop-opacity="0"/>
</linearGradient>
<linearGradient id="paint6_linear_18_21882" x1="5.86877" y1="16.9318" x2="27.4938" y2="16.9318" gradientUnits="userSpaceOnUse">
<stop stop-color="#D8D3DE"/>
<stop offset="1" stop-color="#D8D4DF"/>
</linearGradient>
<linearGradient id="paint7_linear_18_21882" x1="7.54901" y1="12.3885" x2="10.2824" y2="12.3885" gradientUnits="userSpaceOnUse">
<stop stop-color="#BFC0DE"/>
<stop offset="1" stop-color="#BFC0DE" stop-opacity="0"/>
</linearGradient>
<linearGradient id="paint8_linear_18_21882" x1="24.136" y1="11.6879" x2="21.3168" y2="11.6879" gradientUnits="userSpaceOnUse">
<stop stop-color="#BBB3C6"/>
<stop offset="1" stop-color="#BBB3C6" stop-opacity="0"/>
</linearGradient>
<linearGradient id="paint9_linear_18_21882" x1="7.35306" y1="16.3106" x2="14.335" y2="16.3106" gradientUnits="userSpaceOnUse">
<stop stop-color="#EDE9F5"/>
<stop offset="1" stop-color="#EDE9F5" stop-opacity="0"/>
</linearGradient>
<linearGradient id="paint10_linear_18_21882" x1="25.7659" y1="16.4647" x2="13.454" y2="16.4647" gradientUnits="userSpaceOnUse">
<stop stop-color="#BFB5C9"/>
<stop offset="1" stop-color="#BFB5C9" stop-opacity="0"/>
</linearGradient>
<linearGradient id="paint11_linear_18_21882" x1="13.405" y1="9.79297" x2="17.7488" y2="9.79297" gradientUnits="userSpaceOnUse">
<stop stop-color="#DE2430"/>
<stop offset="1" stop-color="#CB2C7D"/>
</linearGradient>
</defs>
</svg>

<svg width="100%" height="100%" viewBox="0 0 32 32" xmlns="http://www.w3.org/2000/svg"><rect width="22.256" height="16.891" x="4.866" y="12.423" fill="url(#a)" rx="2.5"/><rect width="22.256" height="16.891" x="4.866" y="12.423" fill="url(#b)" rx="2.5"/><rect width="22.256" height="16.891" x="4.866" y="12.423" fill="url(#c)" rx="2.5"/><rect width="22.256" height="16.891" x="4.866" y="12.423" fill="url(#d)" rx="2.5"/><g filter="url(#e)"><path fill="#B5A0CF" d="M7.539 8.853a2.45 2.45 0 0 0-2.45 2.45v11.653a2.45 2.45 0 0 0 2.45 2.45h4.567c.629 1.381 2.133 2.353 3.888 2.353 1.756 0 3.26-.972 3.889-2.353h4.567a2.45 2.45 0 0 0 2.45-2.45V11.303a2.45 2.45 0 0 0-2.45-2.45z"/></g><path fill="url(#f)" d="M19.974 29.314h-7.948v-4.422h7.948z"/><path fill="url(#g)" d="M19.974 29.314h-7.948v-4.422h7.948z"/><g filter="url(#h)"><path fill="url(#i)" d="M7.366 8.317a2.5 2.5 0 0 0-2.5 2.5v11.89a2.5 2.5 0 0 0 2.5 2.5h4.66c.642 1.41 2.177 2.401 3.968 2.401s3.326-.992 3.968-2.4h4.66a2.5 2.5 0 0 0 2.5-2.5V10.816a2.5 2.5 0 0 0-2.5-2.5z"/></g><g filter="url(#j)"><path fill="#A4A3C4" d="M24.44 12.513c0-.992-.784-1.795-1.75-1.795H9.299c-.966 0-1.75.803-1.75 1.795v7.895c0 .991.784 1.795 1.75 1.795h3.883c.221 0 .4.184.4.41v.02c0 .992.784 1.796 1.75 1.796h1.27c.966 0 1.75-.804 1.75-1.796v-.02c0-.226.178-.41.4-.41h3.938c.966 0 1.75-.804 1.75-1.795z"/><path fill="url(#k)" d="M24.44 12.513c0-.992-.784-1.795-1.75-1.795H9.299c-.966 0-1.75.803-1.75 1.795v7.895c0 .991.784 1.795 1.75 1.795h3.883c.221 0 .4.184.4.41v.02c0 .992.784 1.796 1.75 1.796h1.27c.966 0 1.75-.804 1.75-1.796v-.02c0-.226.178-.41.4-.41h3.938c.966 0 1.75-.804 1.75-1.795z"/><path fill="url(#l)" d="M24.44 12.513c0-.992-.784-1.795-1.75-1.795H9.299c-.966 0-1.75.803-1.75 1.795v7.895c0 .991.784 1.795 1.75 1.795h3.883c.221 0 .4.184.4.41v.02c0 .992.784 1.796 1.75 1.796h1.27c.966 0 1.75-.804 1.75-1.796v-.02c0-.226.178-.41.4-.41h3.938c.966 0 1.75-.804 1.75-1.795z"/><path stroke="url(#m)" stroke-width=".15" d="M22.69 10.643H9.299c-1.01 0-1.825.839-1.825 1.87v7.895c0 1.03.815 1.87 1.825 1.87h3.883a.33.33 0 0 1 .325.335v.02c0 1.032.816 1.87 1.825 1.87h1.27c1.01 0 1.824-.838 1.824-1.87v-.02a.33.33 0 0 1 .325-.335h3.939c1.01 0 1.825-.84 1.825-1.87v-7.895c0-1.031-.816-1.87-1.825-1.87Z"/><path stroke="url(#n)" stroke-width=".15" d="M22.69 10.643H9.299c-1.01 0-1.825.839-1.825 1.87v7.895c0 1.03.815 1.87 1.825 1.87h3.883a.33.33 0 0 1 .325.335v.02c0 1.032.816 1.87 1.825 1.87h1.27c1.01 0 1.824-.838 1.824-1.87v-.02a.33.33 0 0 1 .325-.335h3.939c1.01 0 1.825-.84 1.825-1.87v-7.895c0-1.031-.816-1.87-1.825-1.87Z"/></g><g filter="url(#o)"><path fill="#2C83D3" d="M24.44 12.815a1.75 1.75 0 0 0-1.75-1.75H9.299a1.75 1.75 0 0 0-1.75 1.75v7.695c0 .966.784 1.75 1.75 1.75h3.883a.4.4 0 0 1 .4.4v.019c0 .966.784 1.75 1.75 1.75h1.27a1.75 1.75 0 0 0 1.75-1.75v-.02c0-.22.178-.4.4-.4h3.938a1.75 1.75 0 0 0 1.75-1.75z"/></g><g filter="url(#p)"><path fill="url(#q)" d="M13.86 16a.65.65 0 0 1-.65-.65V8.06h-1.245a.75.75 0 0 1-.562-1.248L15.44 2.26a.75.75 0 0 1 1.123.001l4.024 4.551a.75.75 0 0 1-.562 1.247h-1.283v7.291a.65.65 0 0 1-.65.65z"/></g><defs><linearGradient id="a" x1="5.518" x2="25.856" y1="27.208" y2="27.208" gradientUnits="userSpaceOnUse"><stop stop-color="#BBA4D4"/><stop offset="1" stop-color="#BDA7D7"/></linearGradient><linearGradient id="b" x1="4.866" x2="8.684" y1="26.728" y2="26.728" gradientUnits="userSpaceOnUse"><stop stop-color="#908A99"/><stop offset="1" stop-color="#A995C1" stop-opacity="0"/></linearGradient><linearGradient id="c" x1="27.122" x2="23.745" y1="26.728" y2="26.728" gradientUnits="userSpaceOnUse"><stop stop-color="#DBD5E6"/><stop offset="1" stop-color="#CCBEDF" stop-opacity="0"/></linearGradient><linearGradient id="d" x1="17.869" x2="17.869" y1="29.314" y2="28.963" gradientUnits="userSpaceOnUse"><stop offset=".243" stop-color="#AA93C3"/><stop offset="1" stop-color="#BEA8D8" stop-opacity="0"/></linearGradient><linearGradient id="f" x1="19.587" x2="16.9" y1="25.588" y2="28.463" gradientUnits="userSpaceOnUse"><stop offset=".082" stop-color="#D1C7E1"/><stop offset="1" stop-color="#967EAF"/></linearGradient><linearGradient id="g" x1="12.275" x2="13.775" y1="29.776" y2="28.401" gradientUnits="userSpaceOnUse"><stop offset=".058" stop-color="#A28ABC"/><stop offset="1" stop-color="#A28ABC" stop-opacity="0"/></linearGradient><linearGradient id="i" x1="5.869" x2="27.494" y1="16.932" y2="16.932" gradientUnits="userSpaceOnUse"><stop stop-color="#D8D3DE"/><stop offset="1" stop-color="#D8D4DF"/></linearGradient><linearGradient id="k" x1="7.549" x2="10.282" y1="12.389" y2="12.389" gradientUnits="userSpaceOnUse"><stop stop-color="#BFC0DE"/><stop offset="1" stop-color="#BFC0DE" stop-opacity="0"/></linearGradient><linearGradient id="l" x1="24.136" x2="21.317" y1="11.688" y2="11.688" gradientUnits="userSpaceOnUse"><stop stop-color="#BBB3C6"/><stop offset="1" stop-color="#BBB3C6" stop-opacity="0"/></linearGradient><linearGradient id="m" x1="7.353" x2="14.335" y1="16.311" y2="16.311" gradientUnits="userSpaceOnUse"><stop stop-color="#EDE9F5"/><stop offset="1" stop-color="#EDE9F5" stop-opacity="0"/></linearGradient><linearGradient id="n" x1="25.766" x2="13.454" y1="16.465" y2="16.465" gradientUnits="userSpaceOnUse"><stop stop-color="#BFB5C9"/><stop offset="1" stop-color="#BFB5C9" stop-opacity="0"/></linearGradient><linearGradient id="q" x1="13.405" x2="17.749" y1="9.793" y2="9.793" gradientUnits="userSpaceOnUse"><stop stop-color="#DE2430"/><stop offset="1" stop-color="#CB2C7D"/></linearGradient><filter id="e" width="22.611" height="19.706" x="4.689" y="8.453" color-interpolation-filters="sRGB" filterUnits="userSpaceOnUse"><feFlood flood-opacity="0" result="BackgroundImageFix"/><feBlend in="SourceGraphic" in2="BackgroundImageFix" result="shape"/><feGaussianBlur result="effect1_foregroundBlur_18_21882" stdDeviation=".2"/></filter><filter id="h" width="22.656" height="19.292" x="4.666" y="8.317" color-interpolation-filters="sRGB" filterUnits="userSpaceOnUse"><feFlood flood-opacity="0" result="BackgroundImageFix"/><feBlend in="SourceGraphic" in2="BackgroundImageFix" result="shape"/><feColorMatrix in="SourceAlpha" result="hardAlpha" values="0 0 0 0 0 0 0 0 0 0 0 0 0 0 0 0 0 0 127 0"/><feOffset dx="-.2"/><feGaussianBlur stdDeviation=".1"/><feComposite in2="hardAlpha" k2="-1" k3="1" operator="arithmetic"/><feColorMatrix values="0 0 0 0 1 0 0 0 0 0.996078 0 0 0 0 1 0 0 0 1 0"/><feBlend in2="shape" result="effect1_innerShadow_18_21882"/><feColorMatrix in="SourceAlpha" result="hardAlpha" values="0 0 0 0 0 0 0 0 0 0 0 0 0 0 0 0 0 0 127 0"/><feOffset dx=".2"/><feGaussianBlur stdDeviation=".1"/><feComposite in2="hardAlpha" k2="-1" k3="1" operator="arithmetic"/><feColorMatrix values="0 0 0 0 0.678431 0 0 0 0 0.662745 0 0 0 0 0.709804 0 0 0 1 0"/><feBlend in2="effect1_innerShadow_18_21882" result="effect2_innerShadow_18_21882"/></filter><filter id="j" width="17.391" height="14.211" x="7.299" y="10.468" color-interpolation-filters="sRGB" filterUnits="userSpaceOnUse"><feFlood flood-opacity="0" result="BackgroundImageFix"/><feBlend in="SourceGraphic" in2="BackgroundImageFix" result="shape"/><feGaussianBlur result="effect1_foregroundBlur_18_21882" stdDeviation=".05"/></filter><filter id="o" width="17.291" height="13.613" x="7.299" y="10.815" color-interpolation-filters="sRGB" filterUnits="userSpaceOnUse"><feFlood flood-opacity="0" result="BackgroundImageFix"/><feBlend in="SourceGraphic" in2="BackgroundImageFix" result="shape"/><feColorMatrix in="SourceAlpha" result="hardAlpha" values="0 0 0 0 0 0 0 0 0 0 0 0 0 0 0 0 0 0 127 0"/><feOffset dx="-.25" dy="-.25"/><feGaussianBlur stdDeviation=".125"/><feComposite in2="hardAlpha" k2="-1" k3="1" operator="arithmetic"/><feColorMatrix values="0 0 0 0 0.341176 0 0 0 0 0.537255 0 0 0 0 0.745098 0 0 0 1 0"/><feBlend in2="shape" result="effect1_innerShadow_18_21882"/><feColorMatrix in="SourceAlpha" result="hardAlpha" values="0 0 0 0 0 0 0 0 0 0 0 0 0 0 0 0 0 0 127 0"/><feOffset dx=".15"/><feGaussianBlur stdDeviation=".125"/><feComposite in2="hardAlpha" k2="-1" k3="1" operator="arithmetic"/><feColorMatrix values="0 0 0 0 0.168627 0 0 0 0 0.439216 0 0 0 0 0.776471 0 0 0 1 0"/><feBlend in2="effect1_innerShadow_18_21882" result="effect2_innerShadow_18_21882"/><feColorMatrix in="SourceAlpha" result="hardAlpha" values="0 0 0 0 0 0 0 0 0 0 0 0 0 0 0 0 0 0 127 0"/><feOffset dx="-.15"/><feGaussianBlur stdDeviation=".125"/><feComposite in2="hardAlpha" k2="-1" k3="1" operator="arithmetic"/><feColorMatrix values="0 0 0 0 0.164706 0 0 0 0 0.364706 0 0 0 0 0.694118 0 0 0 1 0"/><feBlend in2="effect2_innerShadow_18_21882" result="effect3_innerShadow_18_21882"/></filter><filter id="p" width="9.962" height="14.392" x="11.013" y="1.808" color-interpolation-filters="sRGB" filterUnits="userSpaceOnUse"><feFlood flood-opacity="0" result="BackgroundImageFix"/><feBlend in="SourceGraphic" in2="BackgroundImageFix" result="shape"/><feColorMatrix in="SourceAlpha" result="hardAlpha" values="0 0 0 0 0 0 0 0 0 0 0 0 0 0 0 0 0 0 127 0"/><feOffset dx="-.2" dy=".2"/><feGaussianBlur stdDeviation=".2"/><feComposite in2="hardAlpha" k2="-1" k3="1" operator="arithmetic"/><feColorMatrix values="0 0 0 0 0.898039 0 0 0 0 0.333333 0 0 0 0 0.54902 0 0 0 1 0"/><feBlend in2="shape" result="effect1_innerShadow_18_21882"/><feColorMatrix in="SourceAlpha" result="hardAlpha" values="0 0 0 0 0 0 0 0 0 0 0 0 0 0 0 0 0 0 127 0"/><feOffset dx=".2" dy="-.2"/><feGaussianBlur stdDeviation=".2"/><feComposite in2="hardAlpha" k2="-1" k3="1" operator="arithmetic"/><feColorMatrix values="0 0 0 0 0.815686 0 0 0 0 0.105882 0 0 0 0 0.341176 0 0 0 1 0"/><feBlend in2="effect1_innerShadow_18_21882" result="effect2_innerShadow_18_21882"/></filter></defs></svg>
